src/components/sections/images/img_icon_3.svg

<svg width="24" height="24" viewBox="0 0 24 24" fill="none" xmlns="http://www.w3.org/2000/svg">
<path d="M7.7587 2H16.2413C17.0463 1.99999 17.7106 1.99998 18.2518 2.04419C18.8139 2.09012 19.3306 2.18868 19.816 2.43598C20.5686 2.81947 21.1805 3.43139 21.564 4.18404C21.8113 4.66937 21.9099 5.18608 21.9558 5.74818C22 6.28937 22 6.95372 22 7.75868V14C22 14.5523 21.5523 15 21 15C20.4477 15 20 14.5523 20 14V7.8C20 6.94342 19.9992 6.36113 19.9624 5.91104C19.9266 5.47262 19.8617 5.24842 19.782 5.09202C19.5903 4.7157 19.2843 4.40973 18.908 4.21799C18.7516 4.1383 18.5274 4.07337 18.089 4.03755C17.6389 4.00078 17.0566 4 16.2 4H7.8C6.94342 4 6.36113 4.00078 5.91104 4.03755C5.47262 4.07337 5.24842 4.1383 5.09202 4.21799C4.7157 4.40973 4.40973 4.7157 4.21799 5.09202C4.1383 5.24842 4.07337 5.47262 4.03755 5.91104C4.00078 6.36113 4 6.94342 4 7.8V16.2C4 17.0566 4.00078 17.6389 4.03755 18.089C4.07337 18.5274 4.1383 18.7516 4.21799 18.908C4.40973 19.2843 4.7157 19.5903 5.09202 19.782C5.24842 19.8617 5.47262 19.9266 5.91104 19.9624C6.36113 19.9992 6.94342 20 7.8 20H14C14.5523 20 15 20.4477 15 21C15 21.5523 14.5523 22 14 22H7.75868C6.95372 22 6.28936 22 5.74818 21.9558C5.18608 21.9099 4.66937 21.8113 4.18404 21.564C3.43139 21.1805 2.81947 20.5686 2.43598 19.816C2.18868 19.3306 2.09012 18.8139 2.04419 18.2518C1.99998 17.7106 1.99999 17.0463 2 16.2413V7.7587C1.99999 6.95374 1.99998 6.28937 2.04419 5.74818C2.09012 5.18608 2.18868 4.66937 2.43598 4.18404C2.81947 3.43139 3.43139 2.81947 4.18404 2.43598C4.66937 2.18868 5.18608 2.09012 5.74818 2.04419C6.28937 1.99998 6.95374 1.99999 7.7587 2Z" fill="black"/>
<path d="M15.1378 13.4311L10.3155 15.8422C9.54883 16.2256 9.16546 16.4172 8.85384 16.3712C8.58173 16.331 8.33819 16.1805 8.18054 15.9551C8 15.6969 8 15.2683 8 14.4111L8 9.58883C8 8.73161 8 8.303 8.18054 8.04487C8.33819 7.81946 8.58173 7.66895 8.85384 7.62875C9.16546 7.5827 9.54882 7.77438 10.3155 8.15774L15.1378 10.5689C16.059 11.0295 16.5197 11.2598 16.6675 11.5714C16.7961 11.8427 16.7961 12.1573 16.6675 12.4285C16.5197 12.7401 16.059 12.9704 15.1378 13.4311Z" fill="black"/>
<path d="M21 17C21 16.4477 20.5523 16 20 16C19.4477 16 19 16.4477 19 17V19H17C16.4477 19 16 19.4477 16 20C16 20.5523 16.4477 21 17 21H19V23C19 23.5523 19.4477 24 20 24C20.5523 24 21 23.5523 21 23V21H23C23.5523 21 24 20.5523 24 20C24 19.4477 23.5523 19 23 19H21V17Z" fill="black"/>
</svg>

<svg width="24" height="24" fill="none" xmlns="http://www.w3.org/2000/svg"><path d="M7.759 2h8.482c.805 0 1.47 0 2.01.044.563.046 1.08.145 1.565.392a4 4 0 0 1 1.748 1.748c.247.485.346 1.002.392 1.564C22 6.29 22 6.954 22 7.758V14a1 1 0 1 1-2 0V7.8c0-.857 0-1.439-.038-1.889-.035-.438-.1-.663-.18-.819a2 2 0 0 0-.874-.874c-.156-.08-.38-.145-.819-.18C17.639 4 17.057 4 16.2 4H7.8c-.857 0-1.439 0-1.889.038-.438.035-.663.1-.819.18a2 2 0 0 0-.874.874c-.08.156-.145.38-.18.819C4 6.361 4 6.943 4 7.8v8.4c0 .857 0 1.439.038 1.889.035.438.1.663.18.819a2 2 0 0 0 .874.874c.156.08.38.145.819.18C6.361 20 6.943 20 7.8 20H14a1 1 0 1 1 0 2H7.759c-.805 0-1.47 0-2.01-.044-.563-.046-1.08-.145-1.565-.392a4 4 0 0 1-1.748-1.748c-.247-.485-.346-1.002-.392-1.564C2 17.71 2 17.046 2 16.242V7.758c0-.805 0-1.47.044-2.01.046-.563.145-1.08.392-1.565a4 4 0 0 1 1.748-1.748c.485-.247 1.002-.346 1.564-.392C6.29 2 6.954 2 7.758 2z" fill="#000"/><path d="m15.138 13.431-4.822 2.411c-.767.384-1.15.575-1.462.53a1 1 0 0 1-.673-.417C8 15.697 8 15.268 8 14.411V9.59c0-.857 0-1.286.18-1.544a1 1 0 0 1 .674-.416c.311-.046.695.145 1.462.529l4.822 2.41c.921.462 1.382.692 1.53 1.003a1 1 0 0 1 0 .857c-.148.312-.609.542-1.53 1.003zM21 17a1 1 0 1 0-2 0v2h-2a1 1 0 1 0 0 2h2v2a1 1 0 1 0 2 0v-2h2a1 1 0 1 0 0-2h-2v-2z" fill="#000"/></svg>
